icons/tsconfig.svg

<!--
  - The MIT License (MIT)
  -
  - Copyright (c) 2015-2024 Elior "Mallowigi" Boukhobza
  -
  - Permission is hereby granted, free of charge, to any person obtaining a copy
  - of this software and associated documentation files (the "Software"), to deal
  - in the Software without restriction, including without limitation the rights
  - to use, copy, modify, merge, publish, distribute, sublicense, and/or sell
  - copies of the Software, and to permit persons to whom the Software is
  - furnished to do so, subject to the following conditions:
  -
  - The above copyright notice and this permission notice shall be included in all
  - copies or substantial portions of the Software.
  -
  - THE SOFTWARE IS PROVIDED "AS IS", WITHOUT WARRANTY OF ANY KIND, EXPRESS OR
  - IMPLIED, INCLUDING BUT NOT LIMITED TO THE WARRANTIES OF MERCHANTABILITY,
  - FITNESS FOR A PARTICULAR PURPOSE AND NONINFRINGEMENT. IN NO EVENT SHALL THE
  - AUTHORS OR COPYRIGHT HOLDERS BE LIABLE FOR ANY CLAIM, DAMAGES OR OTHER
  - LIABILITY, WHETHER IN AN ACTION OF CONTRACT, TORT OR OTHERWISE, ARISING FROM,
  - OUT OF OR IN CONNECTION WITH THE SOFTWARE OR THE USE OR OTHER DEALINGS IN THE
  - SOFTWARE.
  -
  -->

<svg xmlns="http://www.w3.org/2000/svg" viewBox="0 0 24 24" version="1.0" width="16px" height="16px">
  <path
      d="M 10.001953 2 C 9.7519531 2 9.5419531 2.1799219 9.5019531 2.4199219 L 9.1328125 5.0703125 C 8.5028125 5.3203125 7.9614062 5.6607812 7.4414062 6.0507812 L 4.9511719 5.0507812 C 4.7311719 4.9607813 4.4617969 5.0495313 4.3417969 5.2695312 L 2.3417969 8.7304688 C 2.2117969 8.9504688 2.2728906 9.2191406 2.4628906 9.3691406 L 4.5722656 11 C 4.5322656 11.34 4.5019531 11.67 4.5019531 12 C 4.5019531 12.33 4.5322656 12.650703 4.5722656 12.970703 L 2.4628906 14.630859 C 2.2728906 14.780859 2.2117969 15.049531 2.3417969 15.269531 L 4.3417969 18.730469 C 4.4617969 18.950469 4.7311719 19.029219 4.9511719 18.949219 L 7.4414062 17.939453 C 7.9614063 18.339453 8.5028125 18.679687 9.1328125 18.929688 L 9.5019531 21.580078 C 9.5419531 21.820078 9.7519531 22 10.001953 22 L 14.001953 22 C 14.251953 22 14.461953 21.820078 14.501953 21.580078 L 14.871094 18.929688 C 15.501094 18.669687 16.0425 18.339453 16.5625 17.939453 L 19.052734 18.949219 C 19.272734 19.029219 19.542109 18.950469 19.662109 18.730469 L 21.662109 15.269531 C 21.782109 15.049531 21.732969 14.780859 21.542969 14.630859 L 19.431641 12.970703 C 19.471641 12.650703 19.501953 12.33 19.501953 12 C 19.501953 11.67 19.471641 11.34 19.431641 11 L 21.542969 9.3691406 C 21.732969 9.2191406 21.782109 8.9504688 21.662109 8.7304688 L 19.662109 5.2695312 C 19.542109 5.0495313 19.272734 4.9607812 19.052734 5.0507812 L 16.5625 6.0507812 C 16.0425 5.6607812 15.501094 5.3203125 14.871094 5.0703125 L 14.501953 2.4199219 C 14.461953 2.1799219 14.251953 2 14.001953 2 L 10.001953 2 z M 15.173828 8.0488281 A 4.3303023 4.3302765 0 0 1 16.037109 8.1191406 A 2.1285842 2.1285715 0 0 1 17.107422 8.734375 A 2.8161398 2.8161233 0 0 1 17.517578 9.2851562 C 17.522878 9.3068062 16.778958 9.8054026 16.328125 10.083984 C 16.311765 10.095044 16.247446 10.024756 16.173828 9.9160156 A 0.96902537 0.96901963 0 0 0 15.369141 9.4355469 C 14.850948 9.3999369 14.517125 9.6712829 14.519531 10.125 A 0.6254881 0.62548439 0 0 0 14.59375 10.445312 C 14.707781 10.681073 14.919042 10.823124 15.583984 11.111328 C 16.808016 11.640583 17.333911 11.984864 17.658203 12.478516 A 2.4817443 2.4817296 0 0 1 17.857422 14.5625 A 2.2921733 2.2921596 0 0 1 15.966797 15.917969 A 5.2444771 5.244446 0 0 1 14.664062 15.904297 A 3.142356 3.1423373 0 0 1 12.923828 14.998047 A 3.0206263 3.0206084 0 0 1 12.478516 14.337891 A 1.2774391 1.2774316 0 0 1 12.634766 14.238281 C 12.710786 14.194971 12.998165 14.028427 13.269531 13.871094 L 13.763672 13.583984 L 13.865234 13.734375 A 2.2955412 2.2955277 0 0 0 14.515625 14.355469 A 1.5877775 1.5877681 0 0 0 16.179688 14.271484 A 0.74336856 0.74336413 0 0 0 16.275391 13.320312 C 16.142594 13.127859 15.870884 12.971113 15.099609 12.636719 A 4.2340733 4.2340482 0 0 1 13.488281 11.648438 A 2.2551252 2.2551118 0 0 1 13.019531 10.792969 A 3.4238257 3.4238053 0 0 1 12.990234 9.7011719 A 2.0843188 2.0843065 0 0 1 14.742188 8.078125 A 4.3303023 4.3302765 0 0 1 15.173828 8.0488281 z M 9.0253906 8.1269531 L 12.013672 8.1367188 L 12.023438 8.8320312 L 12.029297 9.53125 L 9.8007812 9.53125 L 9.8007812 15.857422 L 8.2304688 15.857422 L 8.2304688 9.5332031 L 6.0019531 9.5332031 L 6.0019531 8.8457031 A 6.7292895 6.7292497 0 0 1 6.0214844 8.140625 C 6.0296644 8.129555 7.3832438 8.1240631 9.0253906 8.1269531 z"
      fill="#0288d1" data-iconColor="TSConfig"/>
</svg>

<svg xmlns="http://www.w3.org/2000/svg" viewBox="0 0 24 24"><path fill="#0288d1" d="M10.002 2c-.25 0-.46.18-.5.42l-.37 2.65c-.63.25-1.17.59-1.69.98l-2.49-1a.49.49 0 0 0-.61.22l-2 3.46a.49.49 0 0 0 .12.64L4.573 11c-.04.34-.07.67-.07 1s.03.65.07.97l-2.11 1.66a.49.49 0 0 0-.12.64l2 3.46c.12.22.39.3.61.22l2.49-1.01c.52.4 1.06.74 1.69.99l.37 2.65c.04.24.25.42.5.42h4c.25 0 .46-.18.5-.42l.37-2.65c.63-.26 1.17-.59 1.69-.99l2.49 1.01c.22.08.49 0 .61-.22l2-3.46a.5.5 0 0 0-.119-.64l-2.111-1.66c.04-.32.07-.64.07-.97s-.03-.66-.07-1l2.111-1.63c.19-.15.24-.42.12-.64l-2-3.46a.49.49 0 0 0-.61-.22l-2.49 1c-.52-.39-1.062-.73-1.692-.98l-.369-2.65a.505.505 0 0 0-.5-.42zm5.172 6.049a4.3 4.3 0 0 1 .863.07 2.13 2.13 0 0 1 1.07.615 2.8 2.8 0 0 1 .41.551c.006.022-.738.52-1.189.799-.016.011-.08-.06-.154-.168a.97.97 0 0 0-.805-.48c-.518-.036-.852.235-.85.689a.6.6 0 0 0 .075.32c.114.236.325.378.99.666 1.224.53 1.75.874 2.074 1.368a2.48 2.48 0 0 1 .2 2.084 2.29 2.29 0 0 1-1.891 1.355 5.2 5.2 0 0 1-1.303-.014 3.14 3.14 0 0 1-1.74-.906 3 3 0 0 1-.445-.66 1 1 0 0 1 .156-.1l.635-.367.494-.287.101.15a2.3 2.3 0 0 0 .65.621 1.59 1.59 0 0 0 1.665-.084.74.74 0 0 0 .095-.95c-.132-.193-.404-.35-1.175-.684a4.2 4.2 0 0 1-1.612-.989 2.3 2.3 0 0 1-.468-.855 3.4 3.4 0 0 1-.03-1.092 2.08 2.08 0 0 1 1.752-1.623 4 4 0 0 1 .432-.03m-6.149.078 2.989.01.01.695.005.7H9.801v6.325H8.23V9.533H6.001v-.687a7 7 0 0 1 .02-.705c.008-.011 1.361-.017 3.003-.014" data-iconColor="TSConfig"/></svg>
